flaticon/online-marketing/browser-1.svg

<svg xmlns="http://www.w3.org/2000/svg" width="32" height="32" viewBox="0 0 24 24">
    <path d="M 23.597656 3.25 L 0.402344 3.25 C 0.179688 3.25 0 3.429688 0 3.652344 L 0 20.347656 C 0 20.570312 0.179688 20.75 0.402344 20.75 L 23.597656 20.75 C 23.820312 20.75 24 20.570312 24 20.347656 L 24 3.652344 C 24 3.429688 23.820312 3.25 23.597656 3.25 Z M 23.199219 4.054688 L 23.199219 5.765625 L 0.800781 5.765625 L 0.800781 4.054688 Z M 0.800781 19.945312 L 0.800781 6.570312 L 23.199219 6.570312 L 23.199219 19.945312 Z M 0.800781 19.945312"/>
    <path d="M2.101562 5.3125C2.207031 5.3125 2.3125 5.269531 2.386719 5.195312 2.460938 5.117188 2.503906 5.015625 2.503906 4.910156 2.503906 4.804688 2.460938 4.699219 2.386719 4.625 2.3125 4.550781 2.207031 4.507812 2.101562 4.507812 1.996094 4.507812 1.894531 4.550781 1.820312 4.625 1.742188 4.699219 1.699219 4.804688 1.699219 4.910156 1.699219 5.015625 1.742188 5.117188 1.820312 5.195312 1.894531 5.269531 1.996094 5.3125 2.101562 5.3125zM3.472656 5.3125C3.582031 5.3125 3.683594 5.269531 3.757812 5.195312 3.832031 5.117188 3.875 5.015625 3.875 4.910156 3.875 4.804688 3.832031 4.699219 3.757812 4.625 3.683594 4.550781 3.582031 4.507812 3.472656 4.507812 3.367188 4.507812 3.265625 4.550781 3.191406 4.625 3.117188 4.699219 3.074219 4.804688 3.074219 4.910156 3.074219 5.015625 3.117188 5.117188 3.191406 5.195312 3.265625 5.269531 3.367188 5.3125 3.472656 5.3125zM4.847656 5.3125C4.953125 5.3125 5.054688 5.269531 5.128906 5.195312 5.203125 5.117188 5.246094 5.015625 5.246094 4.910156 5.246094 4.804688 5.203125 4.699219 5.128906 4.625 5.054688 4.550781 4.953125 4.507812 4.847656 4.507812 4.742188 4.507812 4.636719 4.550781 4.5625 4.625 4.488281 4.699219 4.445312 4.804688 4.445312 4.910156 4.445312 5.015625 4.488281 5.117188 4.5625 5.195312 4.636719 5.269531 4.742188 5.3125 4.847656 5.3125zM14.761719 12.074219L14.257812 12.074219 14.257812 9.949219C14.257812 8.707031 13.246094 7.691406 12 7.691406 10.753906 7.691406 9.742188 8.707031 9.742188 9.949219L9.742188 10.984375C9.742188 11.207031 9.921875 11.386719 10.144531 11.386719 10.363281 11.386719 10.542969 11.207031 10.542969 10.984375L10.542969 9.949219C10.542969 9.148438 11.199219 8.496094 12 8.496094 12.800781 8.496094 13.457031 9.148438 13.457031 9.949219L13.457031 12.074219 9.238281 12.074219C9.015625 12.074219 8.835938 12.253906 8.835938 12.472656L8.835938 17.996094C8.835938 18.21875 9.015625 18.398438 9.238281 18.398438L14.761719 18.398438C14.984375 18.398438 15.164062 18.21875 15.164062 17.996094L15.164062 12.472656C15.164062 12.253906 14.984375 12.074219 14.761719 12.074219zM14.359375 17.597656L9.640625 17.597656 9.640625 12.875 14.359375 12.875zM14.359375 17.597656"/>
</svg>

<svg xmlns="http://www.w3.org/2000/svg" width="32" height="32" viewBox="0 0 24 24">
    <path d="M23.598 3.25H.402A.402.402 0 0 0 0 3.652v16.696c0 .222.18.402.402.402h23.196c.222 0 .402-.18.402-.402V3.652a.402.402 0 0 0-.402-.402zm-.399.805v1.71H.801v-1.71zM.801 19.945V6.57h22.398v13.375zm0 0"/>
    <path d="M2.102 5.313c.105 0 .21-.043.285-.118a.416.416 0 0 0 .117-.285.409.409 0 0 0-.117-.285.4.4 0 0 0-.566 0 .396.396 0 0 0 0 .57.4.4 0 0 0 .28.117zm0 0M3.473 5.313a.402.402 0 1 0-.399-.403.4.4 0 0 0 .398.402zm0 0M4.848 5.313a.4.4 0 0 0 .398-.403.4.4 0 1 0-.8 0c0 .106.042.207.117.285.074.075.18.117.285.117zm0 0M14.762 12.074h-.504V9.95A2.261 2.261 0 0 0 12 7.691 2.261 2.261 0 0 0 9.742 9.95v1.035a.401.401 0 0 0 .8 0l.001-1.035c0-.8.656-1.453 1.457-1.453.8 0 1.457.652 1.457 1.453v2.125H9.238a.401.401 0 0 0-.402.399v5.523c0 .223.18.402.402.402h5.524c.222 0 .402-.18.402-.402v-5.523a.401.401 0 0 0-.402-.399zm-.403 5.524H9.641v-4.723h4.718zm0 0"/>
</svg>
